!!!!SEGMENT: pl-sa--598-a-ix-78--004_anonim--la-pensee.krn
!!!cenid: 18xx:643
!!!COM: Anonim
!!!COM-rismID: pe30004985
!!!CDT:
!!!CNT:
!!!OTL: La Pensee
!!!PDT:
!!!AGN: Secular
!!!SMS-siglum: PL-SA
!!!SMS-shelfmark: 598/A IX 78
!!!SMS-shelfwork: 004 W
!!!SMS-variant:
!!!SMS-altvar:
!!!NIFC-rismSourceID: 1001092520
!!!NIFC-islandoraID:
!!!URL-pdf-islandora:
!!!URL-scan: https://bc.bdsandomierz.pl/dlibra/publication/1406/edition/1374/content @EN{Scan in the Sandomierz Diocese Digital Library} @PL{Skany w portalu Cyfrowa Biblioteka Diecezjalna w Sandomierzu}
!!!ONB-nifc: Str. 3
!!!AIN: 1 piano
!!!key:
**kern	**kern	**dynam
*part1	*part1	*part1
*staff2	*staff1	*
*Ipiano	*Iempty	*
*I"Piano	*	*
*I'P-no	*	*
*clefF4	*clefG2	*
*k[f#c#]	*k[f#c#]	*
*D:	*D:	*
*M6/8	*M6/8	*
!	!LO:TX:a:t=La Pensée	!
4r	4a/	.
8r	8g/	.
=1	=1	=1
4A 4F# 4D\	8f#/L	.
.	8g/	.
8r	8a/J	.
4B 4G 4D\	8b\L	.
.	8cc#\	.
8r	8dd\J	.
=2	=2	=2
!LO:N:vis=4	!LO:N:vis=2	!
4.A 4.F# 4.D\	4.a/	.
4r	8a/L	.
.	8ff#/	.
8r	8dd/J	.
=3	=3	=3
4d 4F#\	8a/L	.
.	8ff#/	.
8r	8dd/J	.
.	8qee/	.
4d 4F#\	8dd\L	.
.	8cc#\	.
8r	8dd\J	.
=4	=4	=4
4.e 4.A\	(4dd#X\	.
.	8ee\)	.
4r	4a/	.
8r	8g/	.
=5	=5	=5
8D\L	8f#/L	.
8F#\	8g/	.
8A\J	8a/J	.
8D\L	8b\L	.
8G\	8cc#\	.
8B\J	8dd\J	.
=6	=6	=6
8GG/L	4a#X/	.
8E/	.	.
8G/J	8a#/	.
*rep	*	*
8GG/L	4gg\	.
8E/	.	.
8G/J	8ee\	.
*Xrep	*	*
=7	=7	=7
*rep	*	*
8GG/L	8dd\L	.
8E/	8cc#\	.
8G/J	8ee\J	.
8GG/L	8a\L	.
8E/	8b\	.
8G/J	8cc#\J	.
*Xrep	*	*
=8	=8	=8
*^	*	*
!LO:N:vis=4	!	!	!
4.G/	4D\	4ee\	.
.	8F#\	8dd\	.
!LO:TX:a:t=P:problem=zbędna kreska taktowa	!	!LO:TX:a:t=P:problem=zbędna kreska taktowa	!
4r	8ryy	8a\L	.
.	4ryy	8cc#\	.
8r	.	8ee\J	.
*v	*v	*	*
=9	=9	=9
4g 4e 4A\	4gg 4cc# 4a\	.
8r	8r	.
4.g 4.e 4.A\	4gg 4cc# 4a\	.
.	8r	.
=10	=10	=10
4.f# 4.d 4.A\	4ff# 4dd 4a\	.
.	8r	.
.	(8qgg/	.
4r	8ff#\L)	.
.	8ee\	.
8r	8dd\J	.
=11	=11	=11
4g 4e 4A\	4cc#\	.
8g 8e 8A\	8cc#\	.
4f# 4d 4A\	4dd\	.
8f# 8d 8A\	8dd\	.
=12	=12	=12
4.e 4.c# 4.A\	4ff#\	.
.	8ee\	.
4r	8a\L	.
.	8cc#\	.
8r	8ee\J	.
!!LO:LB:g=original
=13	=13	=13
4g 4e 4A\	4gg 4cc# 4a\	.
8r	8r	.
4g 4e 4A\	4gg 4cc# 4a\	.
8r	8r	.
=14	=14	=14
4.f# 4.d\	4.ff# 4.dd 4.a\	.
.	8qaa/	.
8E\L	8gg#X\L	.
8B\	8ff#\	.
8d\J	8ee\J	.
=15	=15	=15
4.c# 4.A\	8aa\L	.
.	8a\	.
.	8ff#\J	.
4d 4G#X 4E\	8ee\L	.
.	8dd\	.
8d 8G# 8E\	8b\J	.
=16	=16	=16
4.c# 4.A\	4.a/	.
4r	4a/	.
8r	8g/	.
=17	=17	=17
*^	*	*
8D/L	4.D\	8f#/L	ff
8F#/	.	8g/	.
8A/J	.	8a/J	.
8D/L	4.D\	8b/L	.
8G/	.	8cc#/	.
8B/J	.	8dd/J	.
=18	=18	=18	=18
!LO:N:vis=4	!	!	!
4.D/	8D\L	(4.a\	.
.	8F#\	.	.
.	8A\J	.	.
*rep	*rep	*	*
!LO:N:vis=4	!	!	!
4.D/	8D\L	8a\L)	.
.	8F#\	8ff#\	.
.	8A\J	8dd\J	.
*Xrep	*Xrep	*	*
=19	=19	=19	=19
*rep	*rep	*rep	*
!LO:N:vis=4	!	!	!
4.D/	8D\L	8a\L	.
.	8F#\	8ff#\	.
.	8A\J	8dd\J	.
*	*	*Xrep	*
.	.	8qee/	.
!LO:N:vis=4	!	!	!
4.D/	8D\L	8dd\L	.
.	8F#\	8cc#\	.
.	8A\J	8dd\J	.
*Xrep	*Xrep	*	*
*v	*v	*	*
=20	=20	=20
8AA/L	4dd#X\	.
8E/	.	.
8A/J	8ee\	.
*rep	*	*
8AA/L	4a/	.
8E/	.	.
8A/J	8a/	.
*Xrep	*	*
=21	=21	=21
*^	*	*
!LO:N:vis=4	!	!	!
4.D/	8D\L	8f#/L	.
.	8F#\	8g/	.
.	8A\J	8a/J	.
*rep	*rep	*	*
!LO:N:vis=4	!	!	!
4.D/	8D\L	8b\L	.
.	8F#\	8cc#\	.
.	8A\J	8dd\J	.
*Xrep	*Xrep	*	*
*v	*v	*	*
=22	=22	=22
8AA/L	8a#X/	.
8E/	8r	.
8G/J	8b\	.
*rep	*	*
8AA/L	4gg\	.
8E/	.	.
8G/J	8ee\	.
*Xrep	*	*
=23	=23	=23
*rep	*	*
8AA/L	8dd\L	.
8E/	8cc#\	.
8G/J	8ee\J	.
8AA/L	8a\L	.
8E/	8b\	.
8G/J	8cc#\J	.
*Xrep	*	*
=24	=24	=24
*^	*	*
!LO:N:vis=4.	!	!	!
4G/	4.D\	4ee\	.
8F#/	.	8dd\	.
4r	8ryy	4f#/	.
.	4ryy	.	.
8r	.	8f#/	.
*v	*v	*	*
=25	=25	=25
4.B 4.F# 4.D 4.BB\	(>4b/	.
.	8f#/)	.
4.B 4.F# 4.D 4.BB\	(>4dd/	.
.	8b/)	.
!!LO:LB:g=original
=26	=26	=26
*rep	*	*
4.B 4.F# 4.D 4.BB\	4ff#\	.
.	8dd\	.
4.B 4.F# 4.D 4.BB\	4bb\	.
.	8ff#\	.
*Xrep	*	*
=27	=27	=27
*8ba	*	*
8BBB/L	8ff#L 8dd\	.
8CC#/	8ee 8cc#\	.
8DD/J	8ddJ 8b\	.
8EEL 8DD/	8ddL 8b\	.
8FF# 8EE/	8cc# 8g\	.
!LO:TX:b:t=e	!	!
8GGJ 8EE#X/	8bJ 8g#X\	.
*X8ba	*	*
=28	=28	=28
4.F# 4.C# 4.AA#X 4.FF#/	8a#XL 8f#/	.
.	8cc#/	.
.	8ee/J	.
4r	4f#/	.
8r	8f#/	.
=29	=29	=29
4.B 4.F# 4.D 4.BB\	(4b/	.
.	8f#/)	.
*rep	*	*
4.B 4.F# 4.D 4.BB\	(<4dd\	.
.	8b\)	.
*Xrep	*	*
=30	=30	=30
*rep	*	*
4.B 4.F# 4.D 4.BB\	(4ff#\	.
.	8dd\)	.
*Xrep	*	*
*rep	*	*
4.B 4.F# 4.D 4.BB\	(4bb\	.
.	8ff#\)	.
*Xrep	*	*
=31	=31	=31
4.c# 4.G 4.E\	8gg\L	.
.	8ff#\	.
.	8ee\J	.
4.e 4.A#X 4.F#\	8ee\L	.
.	8dd\	.
.	8cc#\J	.
=||	=||	=||
4.d 4.B\	4.b/	.
=32||	=32||	=32||
4r	4a/	.
!	!LO:TX:b:t=D.C.	!
8r	8g/	.
!LO:TX:a:t=[segno]:problem=znak segno na kresce	!LO:TX:a:t=[segno]:problem=znak segno na kresce	!
=||	=||	=||
*-	*-	*-
!!!system-decoration: {s1,s2}
!!!RDF**kern: > = above
!!!RDF**kern: < = below
!!!ENC: Marta Lawrence
!!!END: 2020-12-14
!!!ENC: Kamil Watkowski
!!!END: 2020-06-20
!!!YEC: Copyright 2022 Narodowy Instytut Fryderyka Chopina (https://polishscores.org)
!!!YEM: Licence CC BY 4.0 (https://creativecommons.org/licenses/by/4.0)
